X: 11057
T: LIZ'S REEL
C: Bob McQuillen 6 July 2000
B: Bob's Note Book 11 #57
R: reel
Z: 2020 John Chambers <jc:trillian.mit.edu>
M: C
L: 1/8
K: G
DE \
| G2G2 FGAB | cdef g2Bd | gfed edBG | ABcA GFED |
| G2AG FGAB | cdef g2Bd | gfed edBG | FGAF G2 :|
|: GA \
| B2Bd cBAc | BGAG FDGA | B2dB cBAG | DGBG A2dc |
| B2dB cBAc | Bdef gedc | BGBd cedc | BGAF G2 :|
%%begintext align
%% Every year when I go out to Seattle
%% for the Northwest Folklife Festival, I run into the Canote family. They are
%% grand folks, and one of them is Liz Klein-Canote, a.k.a. Mrs. Greg. She
%% always makes a point of being real nice to me, so I thought I'd
%% try to pay her back with a tune of her own. I sure hope you like it,
%% Liz, that is, if you can ever find someone to play it for you! :-)
%% Love from Bob
%%endtext

%%sep 1 1 500

%%sep 1 1 500

